X: 59
T: Bosarka
O: Bulgaria
F: http://www.youtube.com/watch?v=Vhk3Bf3yNE8
M: 2/4
L: 1/8
K: Bb
Q:1/4=108
%%MIDI gchord gziz
%%MIDI chordprog 0
%%MIDI chordvol 60
V:1
%%MIDI program 69
|:"F"(3F=EF GF   |"G" G3 F      |"F"(3_EFE FE|"D" D2 CB,|\
  B,2  B,/C3/2   | C/D3/2 D/E3/2|D2 C2       |[1B,C D2  :|[2"Bb"B,4 |
V:2
%%MIDI program 73
|:(3f=ef gf      |g3 f          |(3_efe fe   | d2 cB    |\
  B2  B/c3/2     | c/d3/2 d/e3/2|d2 c2       |[1Bc d2   :|[2B4      |
V:1
Q:1/4=120
|:"F"B,/A,/B, C2 |"D" D2 E2     | D2 C2      |[1B,C D2  :|[2"Bb" B,4|
V:2
|:B/A/B c2       | d2 e2        | d2 c2      |[1Bc d2   :|[2 B4     |
V:1
Q:1/4=132
|:"Bb"B,/A,/B, C2| D2 E2        | D2 C2      |[1B,C D2  :|[2 B,4    |
V:2
|:B/A/B c2       | d2 e2        | d2 c2      |[1Bc d2   :|[2 B4     |
V:1
Q:1/4=160
|:D2 C2          |B,C D2        |D2 C2       |B,4       :|\
|:D2 C2          |B,C D2        |D2 C2       |B,4       :|
V:2
|:d2 c2          |Bc d2         |d2 c2       |B4        :|\
|:d2 c2          |Bc d2         |d2 c2       |B4        :|



